!!!OTL: WOS GAR ZU SACHT UND STILLE GEHT
!!!ARE: Europa, Mitteleuropa, Deutschland
!!!SCT: F0209
!!!YEM: Copyright 1995, estate of Helmut Schaffrath.
**kern
*ICvox
*Ivox
*M3/4
*k[f#]
*G:
{8g
=1
8.dd
16dd
4.dd
8cc
=2
8.cc
16b
4.b}
{8a
=3
4.g
8b
8a
8cc
=4
8.b
16cc
4.dd}
{8gg
=5
8.ff#
16ee
4.dd
8cc
=6
4b
4g
8r}
{8g
=7
8.dd
16dd
4.dd
8cc
=8
8.cc
16b
4.b}
{8a
=9
4.g
8b
8a
8cc
=10
8.b
16cc
4.dd}
{8gg
=11
8.ff#
16ee
4.dd
8cc
=12
4b
4g
8r}
{8b
=13
8.a
16a
4.a
8b
=14
8.dd
16cc
4cc
8r}
{8cc
=15
4.b
8dd
8cc
8ee
=16
8.ee
16dd
4dd
8r}
{8gg
=17
4.dd
8b
8cc
8ee
=18
4.dd
8b
8.cc
16a
=19
4a
8g
4r}
{8b
=20
8.a
16a
4.a
8b
=21
8.dd
16cc
4cc
8r}
{8cc
=22
4.b
8dd
8cc
8ee
=23
8.ee
16dd
4dd
8r}
{8gg
=24
4.dd
8b
8cc
8ee
=25
4.dd
8b
8.cc
16a
=26
4a
8g
4r}
==
!!!AGN: Geselligkeits - Lied
!!!ONB: ESAC (Essen Associative Code) Database: FINK
!!!AMT: simple triple
!!!AIN: vox
!!!EED: Helmut Schaffrath
!!!EEV: 1.0
*-
